azure-patterns/svg-infinity.svg

<svg xmlns="http://www.w3.org/2000/svg" viewBox="0 0 48 23">
                                
                            
  <path fill-rule="evenodd" clip-rule="evenodd" d="M44.728 3.138C41.926 0.298 39.114 -0.046 36.493 0.012C31.929 0.108 28.266 2.355 24.616 7.295C24.135 7.947 23.656 8.642 23.193 9.362C22.578 10.316 21.951 11.216 21.328 12.036C17.689 16.832 14.069 19.163 10.261 19.163C6.33599 19.163 3.25099 16.055 3.08399 11.932C2.97399 9.207 3.82199 6.706 5.41199 5.07C6.77299 3.668 8.49399 2.953 10.375 2.977C12.623 3.004 14.188 3.522 15.776 4.766C16.066 5.002 16.331 5.205 16.584 5.401C17.168 5.851 17.726 6.281 18.34 6.894C18.909 6.108 19.519 5.267 20.086 4.488C18.464 2.825 17.202 1.895 16.086 1.139C14.536 0.373 12.907 0 11.016 0C5.84699 0 0.239989 2.912 0.00698932 11.084C-0.0900107 14.555 0.822989 17.281 2.72399 19.185C4.67999 21.144 7.65399 22.178 11.093 22.068C13.989 21.991 18.834 20.024 22.966 14.736C23.471 14.09 23.953 13.41 24.4 12.717C25.017 11.759 25.644 10.859 26.264 10.042C29.903 5.246 33.523 2.915 37.331 2.915C41.307 2.915 44.549 6.076 44.712 10.11C44.836 13.159 43.92 15.625 42.134 17.051C40.844 18.081 39.212 19.15 37.218 19.101C33.236 19.055 30.561 16.662 26.692 12.735L24.845 15.396C29.183 20.081 33.224 22.434 36.826 22.37C40.111 22.318 47.75 21.103 47.75 10.995C47.75 7.859 46.706 5.142 44.728 3.138Z"></path>
  <path fill-rule="evenodd" clip-rule="evenodd" d="M21.52 8.80454L16.478 7.55954C16.326 7.52254 16.28 7.32954 16.397 7.22654L20.886 3.30754C21.003 3.20454 21.188 3.27754 21.205 3.43254L21.759 8.59654C21.773 8.72954 21.65 8.83654 21.52 8.80454Z"></path>
</svg>

<svg xmlns="http://www.w3.org/2000/svg" viewBox="0 0 48 23"><path fill-rule="evenodd" clip-rule="evenodd" d="M44.728 3.138C41.926.298 39.114-.046 36.493.012c-4.564.096-8.227 2.343-11.877 7.283-.481.652-.96 1.347-1.423 2.067a42.564 42.564 0 0 1-1.865 2.674c-3.639 4.796-7.259 7.127-11.067 7.127-3.925 0-7.01-3.108-7.177-7.231-.11-2.725.738-5.226 2.328-6.862 1.361-1.402 3.082-2.117 4.963-2.093 2.248.027 3.813.545 5.401 1.789.29.236.555.439.808.635.584.45 1.142.88 1.756 1.493.569-.786 1.179-1.627 1.746-2.406-1.622-1.663-2.884-2.593-4-3.349C14.536.373 12.907 0 11.016 0 5.847 0 .24 2.912.007 11.084c-.097 3.471.816 6.197 2.717 8.101 1.956 1.959 4.93 2.993 8.369 2.883 2.896-.077 7.741-2.044 11.873-7.332.505-.646.987-1.326 1.434-2.019a42.64 42.64 0 0 1 1.864-2.675c3.639-4.796 7.259-7.127 11.067-7.127 3.976 0 7.218 3.161 7.381 7.195.124 3.049-.792 5.515-2.578 6.941-1.29 1.03-2.922 2.099-4.916 2.05-3.982-.046-6.657-2.439-10.526-6.366l-1.847 2.661c4.338 4.685 8.379 7.038 11.981 6.974 3.285-.052 10.924-1.267 10.924-11.375 0-3.136-1.044-5.853-3.022-7.857z"/><path fill-rule="evenodd" clip-rule="evenodd" d="M21.52 8.805L16.478 7.56a.193.193 0 0 1-.081-.333l4.489-3.92a.193.193 0 0 1 .319.126l.554 5.164a.194.194 0 0 1-.239.208z"/></svg>
